X: 1
T: Follow Me Home
T: 8 x 32J 3C (RSCDS Book 38)
P: Miss Catherine Stewart, Pettyvaich
C: William Marshall
C: arr. by Terry Traub 12-17-2001
R: jig
M: 6/8
L: 1/8
K: F
|: C|"F"F2 d cAF|"Gm"GAF "C"E2 C|"F"F2 d cAF|"C"cde "F"f2 c|"Bb"def "F"cAF|
"Gm"GAF "C"E2 G|"F"F2 d cAF "C"CDE "F"F2 :||: c|"F"fcf agf|"C7"egb bge|"F"fcf agf|
"C"efg "F"cBA|"Bb"dBd "F"cBA|"Gm"GAF "C"EDC|"F"F2 d cAF|"C"CDE "F"F2 :|
